logos/hubmap.svg

<svg width="161" height="54" viewBox="0 0 161 54" fill="none"
    xmlns="http://www.w3.org/2000/svg">
    <g clip-path="url(#clip0_1749_826)">
        <path d="M24.6562 5.05469V43H14.7891V27.0625H11.8359V43H1.96875V5.05469H11.8359V18.625H14.7891V5.05469H24.6562ZM50.0391 11.8984V43H40.4062L40.5703 40.4219C39.9141 41.4688 39.1016 42.2578 38.1328 42.7891C37.1797 43.3047 36.0781 43.5625 34.8281 43.5625C33.4062 43.5625 32.2266 43.3125 31.2891 42.8125C30.3516 42.3125 29.6562 41.6484 29.2031 40.8203C28.7656 39.9922 28.4922 39.1328 28.3828 38.2422C28.2734 37.3359 28.2188 35.5469 28.2188 32.875V11.8984H37.6875V33.0625C37.6875 35.4844 37.7578 36.9219 37.8984 37.375C38.0547 37.8281 38.4609 38.0547 39.1172 38.0547C39.8203 38.0547 40.2344 37.8203 40.3594 37.3516C40.5 36.8828 40.5703 35.375 40.5703 32.8281V11.8984H50.0391ZM53.7188 5.05469H63.5625C66.6719 5.05469 69.0234 5.29687 70.6172 5.78125C72.2266 6.26563 73.5234 7.25 74.5078 8.73438C75.4922 10.2031 75.9844 12.5781 75.9844 15.8594C75.9844 18.0781 75.6328 19.625 74.9297 20.5C74.2422 21.375 72.875 22.0469 70.8281 22.5156C73.1094 23.0312 74.6562 23.8906 75.4688 25.0938C76.2812 26.2812 76.6875 28.1094 76.6875 30.5781V34.0938C76.6875 36.6562 76.3906 38.5547 75.7969 39.7891C75.2188 41.0234 74.2891 41.8672 73.0078 42.3203C71.7266 42.7734 69.1016 43 65.1328 43H53.7188V5.05469ZM63.5859 11.5469V19.9844C64.0078 19.9688 64.3359 19.9609 64.5703 19.9609C65.5391 19.9609 66.1562 19.7266 66.4219 19.2578C66.6875 18.7734 66.8203 17.4062 66.8203 15.1562C66.8203 13.9688 66.7109 13.1406 66.4922 12.6719C66.2734 12.1875 65.9844 11.8828 65.625 11.7578C65.2812 11.6328 64.6016 11.5625 63.5859 11.5469ZM63.5859 25.8906V36.5078C64.9766 36.4609 65.8594 36.2422 66.2344 35.8516C66.625 35.4609 66.8203 34.5 66.8203 32.9688V29.4297C66.8203 27.8047 66.6484 26.8203 66.3047 26.4766C65.9609 26.1328 65.0547 25.9375 63.5859 25.8906ZM110.695 5.05469V43H102.07V17.3828L98.625 43H92.5078L88.875 17.9688V43H80.25V5.05469H93.0234C93.3984 7.33594 93.7969 10.0234 94.2188 13.1172L95.5781 22.7734L97.8281 5.05469H110.695ZM131.695 5.05469L137.344 43H127.242L126.75 36.1797H123.211L122.625 43H112.406L117.422 5.05469H131.695ZM126.469 29.4531C125.969 25.1562 125.469 19.8516 124.969 13.5391C123.969 20.7891 123.344 26.0938 123.094 29.4531H126.469ZM139.031 5.05469H148.969C151.656 5.05469 153.719 5.26562 155.156 5.6875C156.609 6.10938 157.695 6.71875 158.414 7.51562C159.148 8.3125 159.641 9.28125 159.891 10.4219C160.156 11.5469 160.289 13.2969 160.289 15.6719V18.9766C160.289 21.3984 160.039 23.1641 159.539 24.2734C159.039 25.3828 158.117 26.2344 156.773 26.8281C155.445 27.4219 153.703 27.7188 151.547 27.7188H148.898V43H139.031V5.05469ZM148.898 11.5469V21.2031C149.18 21.2188 149.422 21.2266 149.625 21.2266C150.531 21.2266 151.156 21.0078 151.5 20.5703C151.859 20.1172 152.039 19.1875 152.039 17.7812V14.6641C152.039 13.3672 151.836 12.5234 151.43 12.1328C151.023 11.7422 150.18 11.5469 148.898 11.5469Z" fill="white"/>
    </g>
    <defs>
        <clipPath id="clip0_1749_826">
            <rect width="161" height="54" fill="white"/>
        </clipPath>
    </defs>
</svg>

<svg xmlns="http://www.w3.org/2000/svg" width="161" height="54" fill="none" viewBox="0 0 161 54">
    <g clip-path="url(#a)">
        <path fill="currentColor" d="M24.656 5.055V43H14.79V27.063h-2.953V43H1.969V5.055h9.867v13.57h2.953V5.055zm25.383 6.843V43h-9.633l.164-2.578q-.984 1.57-2.437 2.367-1.43.774-3.305.773-2.133 0-3.539-.75t-2.086-1.992a7.4 7.4 0 0 1-.82-2.578q-.165-1.359-.164-5.367V11.898h9.468v21.165q0 3.632.211 4.312.235.68 1.22.68 1.053 0 1.241-.703.211-.704.211-4.524v-20.93zm3.68-6.843h9.843q4.664 0 7.055.726 2.415.727 3.89 2.953 1.477 2.204 1.477 7.125 0 3.33-1.054 4.641-1.032 1.313-4.102 2.016 3.422.773 4.64 2.578 1.22 1.78 1.22 5.484v3.516q0 3.843-.891 5.695-.867 1.851-2.79 2.531-1.92.68-7.874.68H53.719zm9.867 6.492v8.437q.633-.023.984-.023 1.454 0 1.852-.703.398-.727.398-4.102 0-1.78-.328-2.484-.328-.728-.867-.914-.515-.187-2.04-.211m0 14.344v10.617q2.085-.07 2.648-.656.586-.586.586-2.883v-3.54q0-2.437-.515-2.952-.516-.517-2.72-.586m47.109-20.836V43h-8.625V17.383L98.625 43h-6.117l-3.633-25.031V43H80.25V5.055h12.773q.563 3.42 1.196 8.062l1.36 9.656 2.25-17.718zm21 0L137.344 43h-10.102l-.492-6.82h-3.539l-.586 6.82h-10.219l5.016-37.945zm-5.226 24.398q-.75-6.445-1.5-15.914-1.5 10.875-1.875 15.914zm12.562-24.398h9.938q4.031 0 6.187.633 2.18.631 3.258 1.828 1.102 1.195 1.477 2.906.398 1.688.398 5.25v3.305q0 3.632-.75 5.296t-2.766 2.555q-1.992.89-5.226.89h-2.649V43h-9.867zm9.867 6.492v9.656q.423.024.727.024 1.359 0 1.875-.657.539-.68.539-2.789v-3.117q0-1.945-.609-2.531-.61-.585-2.532-.586"/>
    </g>
    <defs>
        <clipPath id="a">
            <path fill="currentColor" d="M0 0h161v54H0z"/>
        </clipPath>
    </defs>
</svg>
